assets/emojis/ConfoundedFace.svg

<svg width="125" height="125" viewBox="0 0 125 125" fill="none" xmlns="http://www.w3.org/2000/svg">
<circle cx="62.3496" cy="62.3496" r="62.3496" fill="#F9B42F"/>
<path opacity="0.3" fill-rule="evenodd" clip-rule="evenodd" d="M113.289 98.5176C101.967 110.111 86.1631 117.308 68.6786 117.308C34.2439 117.308 6.32903 89.3928 6.32903 54.9581C6.32903 41.5644 10.5523 29.1571 17.7397 18.9951C6.76384 30.234 0 45.6044 0 62.5547C0 96.9894 27.9149 124.904 62.3496 124.904C83.3906 124.904 101.997 114.482 113.289 98.5176Z" fill="#BC8417"/>
<path d="M93.8105 64.774C93.6485 64.7736 93.4874 64.7488 93.3328 64.7005L82.0746 61.4174C81.7413 61.3227 81.4442 61.1299 81.2218 60.8641C80.9995 60.5984 80.8622 60.2718 80.8278 59.927C80.7935 59.5822 80.8637 59.2351 81.0292 58.9306C81.1947 58.6262 81.448 58.3786 81.7561 58.22C81.7561 58.22 90.5152 53.6874 93.1368 52.2909C93.5413 52.0748 94.015 52.0283 94.4538 52.1615C94.8926 52.2948 95.2605 52.5968 95.4766 53.0013C95.6927 53.4058 95.7392 53.8796 95.6059 54.3184C95.4727 54.7572 95.1706 55.1251 94.7661 55.3412C93.296 56.1252 89.8659 57.9015 87.1831 59.3103L94.3005 61.3806C94.7071 61.4916 95.0591 61.7472 95.2903 62.0996C95.5214 62.452 95.6158 62.8768 95.5556 63.294C95.4953 63.7111 95.2847 64.0918 94.9633 64.3644C94.6419 64.637 94.2319 64.7827 93.8105 64.774Z" fill="#2C2A46"/>
<path d="M30.2792 64.7744C29.859 64.7799 29.4512 64.6319 29.1322 64.3583C28.8132 64.0847 28.605 63.7042 28.5464 63.2881C28.4878 62.8719 28.5829 62.4487 28.8139 62.0976C29.045 61.7466 29.3961 61.4918 29.8014 61.381L36.9189 59.3107C34.2116 57.9019 30.7937 56.1256 29.3359 55.3416C29.1273 55.2402 28.9412 55.0979 28.7887 54.923C28.6363 54.7482 28.5206 54.5445 28.4486 54.324C28.3766 54.1035 28.3497 53.8707 28.3697 53.6396C28.3896 53.4085 28.4558 53.1838 28.5645 52.9788C28.6731 52.7739 28.8219 52.5929 29.002 52.4467C29.1821 52.3005 29.3898 52.1921 29.6127 52.128C29.8356 52.0638 30.0692 52.0452 30.2995 52.0732C30.5297 52.1013 30.752 52.1754 30.953 52.2913C33.5745 53.6878 42.3336 58.2204 42.3336 58.2204C42.6419 58.378 42.8957 58.6246 43.0622 58.9283C43.2286 59.2319 43.2999 59.5785 43.2669 59.9232C43.2339 60.2678 43.098 60.5946 42.877 60.8612C42.656 61.1277 42.36 61.3216 42.0273 61.4178L30.7692 64.7009C30.6103 64.7491 30.4453 64.7739 30.2792 64.7744Z" fill="#2C2A46"/>
<path d="M96.3709 46.3505H96.1013C93.4459 45.8896 90.9125 44.8912 88.6564 43.4167C86.4004 41.9421 84.4692 40.0224 82.9811 37.7752C82.8354 37.5842 82.731 37.3649 82.6749 37.1313C82.6187 36.8976 82.6118 36.6549 82.6548 36.4184C82.6978 36.182 82.7896 35.9572 82.9244 35.7583C83.0592 35.5593 83.234 35.3907 83.4377 35.2632C83.6413 35.1357 83.8694 35.0521 84.1072 35.0178C84.345 34.9834 84.5874 34.999 84.8188 35.0636C85.0503 35.1283 85.2657 35.2405 85.4513 35.3931C85.6369 35.5457 85.7886 35.7353 85.8968 35.9499C87.1298 37.7637 88.7096 39.3156 90.5451 40.5161C92.3805 41.7167 94.4354 42.5421 96.5914 42.9449C96.8159 42.9793 97.0314 43.0576 97.2256 43.1753C97.4199 43.2931 97.5889 43.4481 97.7232 43.6313C97.8575 43.8145 97.9543 44.0223 98.0081 44.243C98.062 44.4637 98.0717 44.6928 98.0369 44.9172C97.9733 45.3144 97.771 45.6763 97.4661 45.9386C97.1611 46.201 96.7731 46.3469 96.3709 46.3505Z" fill="#2C2A46"/>
<path d="M27.7322 46.3498C27.3193 46.3519 26.9193 46.206 26.6046 45.9386C26.29 45.6712 26.0816 45.2998 26.0172 44.892C25.9534 44.4396 26.0688 43.9803 26.3389 43.6119C26.6089 43.2435 27.0122 42.9951 27.4627 42.9197C29.6128 42.523 31.6625 41.7024 33.4923 40.5057C35.3221 39.309 36.8954 37.7601 38.1206 35.9492C38.2331 35.7455 38.3855 35.5667 38.5688 35.4235C38.7521 35.2802 38.9625 35.1755 39.1873 35.1155C39.4121 35.0555 39.6466 35.0416 39.8769 35.0745C40.1073 35.1074 40.3285 35.1865 40.5275 35.3071C40.7265 35.4276 40.8991 35.5871 41.0349 35.776C41.1707 35.9649 41.267 36.1793 41.3179 36.4063C41.3688 36.6333 41.3734 36.8682 41.3313 37.097C41.2892 37.3258 41.2013 37.5437 41.0729 37.7377C39.5819 39.9848 37.6484 41.9043 35.3904 43.3787C33.1324 44.8531 30.5974 45.8515 27.9405 46.313L27.7322 46.3498Z" fill="#2C2A46"/>
<path d="M49.4417 84.9964C48.942 84.9971 48.4611 84.7987 48.0981 84.4421L44.6012 80.9635C44.2278 80.5922 44.0117 80.0821 44.0005 79.5453C43.9892 79.0085 44.1838 78.4891 44.5414 78.1013C44.8989 77.7136 45.3901 77.4892 45.907 77.4775C46.4239 77.4659 46.9241 77.6679 47.2975 78.0392L49.4509 80.1799L55.1196 74.5607C55.4811 74.2009 55.9625 74 56.4632 74C56.9639 74 57.4452 74.2009 57.8067 74.5607L63.4663 80.1799L69.1258 74.5607C69.4899 74.2024 69.9724 74.0027 70.4739 74.0027C70.9755 74.0027 71.458 74.2024 71.8221 74.5607L77.4816 80.1799L79.6442 78.0392C79.8266 77.8427 80.0453 77.6865 80.2873 77.5799C80.5292 77.4733 80.7893 77.4186 81.0521 77.419C81.315 77.4195 81.575 77.475 81.8166 77.5824C82.0582 77.6898 82.2764 77.8467 82.4582 78.0438C82.6399 78.241 82.7815 78.4742 82.8743 78.7295C82.9671 78.9848 83.0093 79.257 82.9983 79.5297C82.9873 79.8024 82.9234 80.0699 82.8104 80.3163C82.6973 80.5627 82.5376 80.7828 82.3406 80.9635L78.8344 84.4421C78.4703 84.8003 77.9878 85 77.4862 85C76.9847 85 76.5022 84.8003 76.1381 84.4421L70.4693 78.8133L64.7822 84.4421C64.4181 84.8003 63.9356 85 63.434 85C62.9324 85 62.45 84.8003 62.0859 84.4421L56.5 78.8229L50.8404 84.4421C50.6539 84.6256 50.4343 84.769 50.1943 84.8641C49.9542 84.9592 49.6985 85.0042 49.4417 84.9964Z" fill="#2C2A46"/>
</svg>

<svg xmlns="http://www.w3.org/2000/svg" width="125" height="125" fill="none" viewBox="0 0 125 125"><circle cx="62.35" cy="62.35" r="62.35" fill="#f9b42f"/><path fill="#bc8417" fill-rule="evenodd" d="M113.289 98.518c-11.322 11.593-27.126 18.79-44.61 18.79-34.435 0-62.35-27.915-62.35-62.35 0-13.394 4.223-25.8 11.41-35.963C6.765 30.234 0 45.605 0 62.555c0 34.434 27.915 62.349 62.35 62.349 21.04 0 39.647-10.422 50.939-26.386" clip-rule="evenodd" opacity=".3"/><path fill="#2c2a46" d="M93.81 64.774q-.245 0-.477-.073l-11.258-3.284a1.728 1.728 0 0 1-.319-3.197s8.76-4.533 11.38-5.93a1.729 1.729 0 1 1 1.63 3.051c-1.47.784-4.9 2.56-7.583 3.97l7.117 2.07a1.728 1.728 0 0 1-.49 3.393m-63.53 0a1.727 1.727 0 0 1-.479-3.393l7.118-2.07c-2.707-1.41-6.125-3.185-7.583-3.97a1.728 1.728 0 1 1 1.617-3.05c2.622 1.397 11.38 5.93 11.38 5.93a1.728 1.728 0 0 1-.306 3.197L30.77 64.7a1.7 1.7 0 0 1-.49.073M96.37 46.35h-.269a19.8 19.8 0 0 1-13.12-8.575 1.727 1.727 0 1 1 2.916-1.825 16.62 16.62 0 0 0 10.694 6.995 1.73 1.73 0 0 1 1.446 1.972 1.7 1.7 0 0 1-1.666 1.433m-68.639 0a1.73 1.73 0 0 1-1.715-1.458 1.75 1.75 0 0 1 1.446-1.972 16.48 16.48 0 0 0 10.658-6.97 1.726 1.726 0 0 1 2.914-.174 1.73 1.73 0 0 1 .038 1.962 19.83 19.83 0 0 1-13.132 8.575zm21.71 38.646c-.5.001-.98-.197-1.344-.554l-3.497-3.478a2.06 2.06 0 0 1-.6-1.419 2.07 2.07 0 0 1 .54-1.444 1.92 1.92 0 0 1 1.366-.623 1.9 1.9 0 0 1 1.39.561l2.154 2.14 5.669-5.618c.361-.36.843-.561 1.343-.561s.982.2 1.344.56l5.66 5.62 5.659-5.62a1.92 1.92 0 0 1 1.348-.557c.501 0 .984.2 1.348.558l5.66 5.619 2.162-2.14c.183-.197.401-.354.643-.46a1.9 1.9 0 0 1 1.53.002c.241.108.46.265.641.462.182.197.323.43.416.686a2.1 2.1 0 0 1-.064 1.586 2 2 0 0 1-.47.647l-3.506 3.48a1.92 1.92 0 0 1-1.348.557c-.501 0-.984-.2-1.348-.558l-5.669-5.629-5.687 5.63a1.92 1.92 0 0 1-1.348.557c-.502 0-.984-.2-1.348-.558l-5.586-5.62-5.66 5.62a1.9 1.9 0 0 1-.646.422c-.24.095-.495.14-.752.132"/></svg>
